X:61
T:Clan Gantry
R:jig
C:Paul S. Cranford
O:Cape Breton Island
S:http://www.cranfordpub.com
D:currently unrecorded
B:currently unpublished in book form
Z:psc
H:                                                        copyrights Cranford Publications, SOCAN
L:1/8
Q:300
M:6/8
K:F
G|FAc fcc|gfe fcA|cdc cAc|dBG G2 A|
FAc fcc|gfe fcA|FAc dBG|cAF F2:|
|:F|A,CF AGF|cAc dBG|FAc cAc|[1dBG G2 A|
A,CF AGF|cAc dBG|FAc def|cAF F2:|
[2dBG G2 f|aff gee|fed cAG|FAc dBG|cAF F2|]
